X:157
T: ET WASSEN TWE KUENIGESKINNER
N: E0084C
O: Europa, Mitteleuropa, Deutschland, Muensterland
R: erzaehlendes Volks - Lied, Sage, Liebe, Leid, Tod
M: 4/4
L: 1/8
K: F
C2 | A2AAAGG2 | G3FF2
C2 | B2BBBAcA | G4z2
C2 | c2cccBBB | A3fcB
AG | F2FFAGG2 | F4
G3B | A2AAcBG2 | F4z2

@@@ Tune index: 3807
